!!!OTL: Das boese Stiefmuetterlein Es ging ein treuverliebtes Paar
!!!ARE: Europa, Mitteleuropa, Deutschland (), Sachsen
!!!YOR: 5, S. 313
!!    1894 gedruckt in Leipzig
!!!SCT: Q1119A
!!!YEM: Copyright 1995, estate of Helmut Schaffrath.
**kern
*ICvox
*Ivox
*M3/4
*k[f#]
*G:
{8d
=1
8g
8d
4g
4b
=2
8a
8g
4a
8r}
{8d
=3
8a
8d
4a
4dd
=4
8cc#
8ee
4dd
8r}
{8dd
=5
8b
8dd
4cc
8r
8cc
=6
8a
8cc
4b
8r}
{8g
=7
8g
8b
4dd
4b
=8
4a
4g
8r}
{8dd
=9
8b
8dd
4cc
8r
8cc
=10
8a
8cc
4b
8r}
{8g
=11
8g
8b
4dd
4b
=12
4a
4g
8r}
==
!!!AGN: Ballade
!! Melodievergleich zu Q0119, anderes Lied.
!!!ONB: ESAC (Essen Associative Code) Database: BALLADE
!!!AMT: simple triple
!!!AIN: vox
!!!EED: Helmut Schaffrath
!!!EEV: 1.0
*-
